X:9
T:The Sporting Lass of Perth
R:reel
C: 1975, 2010 L.E. McCullough 
M:4/4
L:1/8
K:D
ag |:~f3d e~B3|ABde fbag|~f3d e~B3|dBAF ~E3A|
d~f3 g~e3|dBAF ~G2FG|ABde ~f3b|afec d3e:| 
|:~f3d ~g3e|fbaf e~B3|~f3d ~g3a|bagf ~e3g|
f~d3 e~B3|D~F3 ~G2FG|ABde fefb|afec d3e:|
<end>
<start>
